X:142
T: Isle of Sky[e] (The)
N: O'Farrell's Pocket Companion v.2 (Sky ed. p.75)
N: "Scotch"
M: C
L: 1/8
Q: 300
K: D
dB|A2 D2 F2 ED|A2D2 GFED|B2E2 EFGA|B2E2E2 FG|
A2 GF d2 cB|A2 GF GFED|D3F EFGE|F2D2D2 :|
ag|f2d2 fgag|f2d2 fgaf|g2e2 efga|b2e2e2 ag|
f2d2 fgag|f2d2 fgab|gfed efga|f2d2d2 de|
f2df e2Be|d2Ad B2FA|BEdE EFGA|B2E2E2 de|
f2 df e2 Be|d2 Ad BGFE|D2D2 EFGB|F2D2D2 :|
